X: 8
T:Tros y Gareg
T:A Leap Over the Stone
M:6/8
L:1/8
Q:130
C:Trad
R:Jig
A:Wales
H:From Edward Jones' "Musical and Poetical Relicks of the Welsh Bards",
H:1794.
Z:brian_martin12345@yahoo.com
K:Gm
G2G ^F=ED|GAGA3|B2B AGF|BcBc3|d2d ded|c2c cdB|ged cdB|AG^FG3:||
dcd Bcd|c2BA3|BAB GAB|A3D3| G2G ^F=ED|GAGA3|B2B AGF|BcBc3|d2d ded|c2c cd^f|g2d edc|BcAG3||
